brandFactory_export/1.Light/Nube_almacenamientoNube_1Light.svg

<?xml version="1.0" encoding="UTF-8"?>
<svg width="24px" height="24px" viewBox="0 0 24 24" version="1.1" xmlns="http://www.w3.org/2000/svg" xmlns:xlink="http://www.w3.org/1999/xlink">
    <title>1.Light/Nube_almacenamientoNube_1Light</title>
    <g id="Symbols" stroke="none" stroke-width="1" fill="none" fill-rule="evenodd">
        <g id="1.Light/Nube_almacenamientoNube_1Light" fill="#5CB615" fill-rule="nonzero">
            <path d="M17.5294118,20.5344538 L4.65546218,20.5344538 C2.0907563,20.5344538 0.00336134454,18.4470588 0.00336134454,15.8823529 C0.00336134454,14.8470588 0.36302521,13.8554622 1.04537815,13.0117647 C1.68403361,12.2218487 2.54789916,11.6436975 3.48235294,11.3815126 C3.5394958,11.3680672 3.59327731,11.3478992 3.64705882,11.3210084 C3.66722689,7.09243697 6.56470588,4.02689076 10.5478992,4.02689076 C13.4352941,4.0302521 16.0504202,5.72773109 17.2302521,8.35966387 L17.2369748,8.37310924 L17.2773109,8.3697479 C17.3613445,8.36638655 17.4453782,8.36302521 17.5327731,8.36302521 C20.887395,8.36302521 23.6201681,11.092437 23.6201681,14.4504202 C23.6201681,17.8084034 20.887395,20.5344538 17.5294118,20.5344538 L17.5294118,20.5344538 Z M10.5478992,4.69915966 C8.78655462,4.69915966 7.19663866,5.36806723 6.06386555,6.58487395 C4.93109244,7.80168067 4.31596639,9.49579832 4.31596639,11.3647059 C4.31596639,11.8420168 3.82521008,11.9831933 3.66386555,12.0268908 C2.8605042,12.2521008 2.11764706,12.7529412 1.56638655,13.4352941 C0.981512605,14.1579832 0.675630252,15.005042 0.675630252,15.8823529 C0.678991597,18.0806723 2.45714286,19.8588235 4.65546218,19.8621849 L17.5294118,19.8621849 C20.5142857,19.8621849 22.9445378,17.4319328 22.9445378,14.4470588 C22.9445378,11.4621849 20.5176471,9.03193277 17.5327731,9.03193277 C17.4588235,9.03193277 17.3882353,9.03529412 17.307563,9.03865546 C17.2571429,9.04201681 17.210084,9.04201681 17.1630252,9.04537815 C16.9142857,9.05210084 16.7327731,8.9210084 16.6252101,8.65210084 C16.6218487,8.64537815 16.6218487,8.63865546 16.6184874,8.63193277 C15.5428571,6.24201681 13.1697479,4.70252101 10.5478992,4.69915966 Z" id="Nube_almacenamientoNube_1Light"></path>
        </g>
    </g>
</svg>

<svg width="24" height="24" viewBox="0 0 24 24" xmlns="http://www.w3.org/2000/svg"><path d="M17.53 20.534H4.654a4.658 4.658 0 01-4.652-4.652c0-1.035.36-2.027 1.042-2.87a4.864 4.864 0 012.437-1.63.747.747 0 00.165-.061c.02-4.229 2.918-7.294 6.9-7.294A7.333 7.333 0 0117.23 8.36l.007.013.04-.003a6.095 6.095 0 016.343 6.08c0 3.358-2.733 6.084-6.09 6.084zM10.547 4.7c-1.761 0-3.351.67-4.484 1.886-1.133 1.217-1.748 2.91-1.748 4.78 0 .477-.49.618-.652.662a4.188 4.188 0 00-2.098 1.408c-.584.723-.89 1.57-.89 2.447a3.984 3.984 0 003.98 3.98h12.873a5.423 5.423 0 005.416-5.415 5.42 5.42 0 00-5.412-5.415c-.074 0-.145.003-.225.007-.05.003-.098.003-.145.006-.249.007-.43-.124-.538-.393-.003-.007-.003-.013-.007-.02a6.666 6.666 0 00-6.07-3.933z" fill="#5CB615" fill-rule="nonzero"/></svg>
